symbols/web/folder_zip/materialsymbolsoutlined/folder_zip_wght700grad200fill1_24px.svg

<svg xmlns="http://www.w3.org/2000/svg" height="24" width="24"><path d="M4.25 21.225q-1.425 0-2.412-.987Q.85 19.25.85 17.825v-12.1q0-1.425.988-2.413.987-.987 2.412-.987h5.125L12 4.95h7.75q1.425 0 2.413.988.987.987.987 2.412v9.475q0 1.425-.987 2.413-.988.987-2.413.987Zm9.85-3.4H16v-1.9h1.9v-1.9H16v-1.9h1.9v-1.85H16V8.35h-1.9v1.925H16v1.875h-1.9v1.875H16v1.9h-1.9Z"/></svg>

<svg xmlns="http://www.w3.org/2000/svg" height="24" width="24"><path d="M4.25 21.225Q2.825 21.225 1.838 20.238Q0.85 19.25 0.85 17.825V5.725Q0.85 4.3 1.838 3.312Q2.825 2.325 4.25 2.325H9.375L12 4.95H19.75Q21.175 4.95 22.163 5.938Q23.15 6.925 23.15 8.35V17.825Q23.15 19.25 22.163 20.238Q21.175 21.225 19.75 21.225ZM14.1 17.825H16V15.925H17.9V14.025H16V12.125H17.9V10.275H16V8.35H14.1V10.275H16V12.15H14.1V14.025H16V15.925H14.1Z"/></svg>
